img/icons/tg.svg

<svg width="50" height="50" viewBox="0 0 50 50" fill="none" xmlns="http://www.w3.org/2000/svg">
<path d="M24.7279 0.518555C11.3204 0.518555 0.438965 11.4 0.438965 24.8075C0.438965 38.215 11.3204 49.0965 24.7279 49.0965C38.1354 49.0965 49.0169 38.215 49.0169 24.8075C49.0169 11.4 38.1354 0.518555 24.7279 0.518555ZM35.998 17.035C35.6336 20.8727 34.0549 30.1996 33.2533 34.4988C32.9133 36.3205 32.2332 36.9277 31.6017 37.0006C30.1929 37.122 29.1242 36.0776 27.764 35.1789C25.6266 33.7701 24.4122 32.8957 22.3476 31.5355C19.943 29.9568 21.4975 29.0824 22.882 27.6736C23.2463 27.3093 29.4643 21.6499 29.5857 21.1399C29.6026 21.0626 29.6003 20.9824 29.5792 20.9062C29.558 20.83 29.5186 20.7602 29.4643 20.7027C29.3185 20.5812 29.1242 20.6298 28.9542 20.6541C28.7356 20.7027 25.3351 22.9615 18.7043 27.4307C17.7327 28.0865 16.8583 28.4266 16.081 28.4023C15.2066 28.378 13.555 27.9165 12.3163 27.5036C10.7861 27.0178 9.5959 26.7506 9.69305 25.9005C9.74163 25.4633 10.3489 25.0261 11.4904 24.5646C18.5828 21.4799 23.2949 19.4396 25.6509 18.4681C32.4032 15.6506 33.7877 15.1648 34.7107 15.1648C34.905 15.1648 35.3665 15.2134 35.6579 15.4563C35.9008 15.6506 35.9737 15.9177 35.998 16.1121C35.9737 16.2578 36.0223 16.695 35.998 17.035Z" fill="#29ABEE"/>
</svg>

<svg width="50" height="50" fill="none" xmlns="http://www.w3.org/2000/svg"><path d="M24.728.519C11.32.519.439 11.4.439 24.808c0 13.407 10.881 24.288 24.289 24.288 13.407 0 24.289-10.881 24.289-24.288 0-13.408-10.882-24.29-24.29-24.29zm11.27 16.516c-.364 3.838-1.943 13.165-2.745 17.464-.34 1.822-1.02 2.429-1.651 2.502-1.41.121-2.478-.923-3.838-1.822-2.137-1.409-3.352-2.283-5.416-3.644-2.405-1.578-.85-2.453.534-3.861.364-.365 6.582-6.024 6.704-6.534a.486.486 0 00-.122-.437c-.145-.122-.34-.073-.51-.049-.218.049-3.619 2.308-10.25 6.777-.971.655-1.846.996-2.623.971-.874-.024-2.526-.486-3.765-.898-1.53-.486-2.72-.753-2.623-1.604.049-.437.656-.874 1.797-1.335 7.093-3.085 11.805-5.125 14.16-6.097 6.753-2.817 8.138-3.303 9.06-3.303.195 0 .657.048.948.291a.965.965 0 01.34.656c-.024.146.024.583 0 .923z" fill="#29ABEE"/></svg>
